X: 12
T:Christmas Eve
M:4/4
Q:120
S:THSP
R:reel
K:G
"G"DB,DE ~G3A|"C"B2dB ABGA|"G"BAGE DB,DE|"C"GABG "D"A2GE|
"G"DB,DE ~G3A|"C"B2dB ABGA|"G"BAGE DEGA
|1 "D"BGAF "G"~G3E:|2 "D"BGAF "G"~G3A||:
"G"BABd edeg|"Em"a2ge g2eg|"Am"abae gage|"C"dBgB "D"BAGA|
"G"BABd edeg|"Em"a2ge g2eg|"Am"a2ge dBGB
|1 "D"ABGE "G"~G3A:|2 "D"ABGE "G"G2dc||:
"G"BG ~G2 DGBd|"C"eg ~g2 egdc|"G"BG~G2 DGBG|"D"EA ~A2 BAFA|
"G"BG ~G2 DGBd|"C"eg ~g2 dega|"G"bgaf gedc
|1 "D"BGAF "G"G2dc:|2 "D"BGAF "G"~G3E|]
